X: 2
T: The Priest
R: slide
M: 12/8
L: 1/8
K: Emin
edB d2B d2B B2g|edB d2B c2A A2g|
edB d2B BAB g2B|BAB gfg B2G G2g:|
gag fef g2e e2d|e2a aga b2e e2f|
gag fef g2e e2d|1 BAB gfg B2G G2g:|2 BAB gfg B2G G2||


Tune 1765	Setting 15212

